X:15
T:Trip to Harrowgate. THO2.015, A
O:London
M:6/8
L:1/8
Q:3/8=120
B:Thompson's Compleat Coll. of 200 Favourite Country Dances, vol.2,1765
Z:Transcribed and edited by Fynn Titford-Mock, 2007
Z:abc's:AK/Fiddler's Companion/VMP 2009
K:A
E|Aec Aec|Bcd d3|cBA GAB|A[Ee][Dd] [Cc][B,B][A,A]|Aec Ace|agf gfe|
dBe fe^d|eBG E2::e|e=gf edc|dBd f^ab|dfe dcB|
cAc ega|fed cBA|GFE dBd|cBA BAG|A[Ee][Cc] [A,2A2]:|

